X:1
T:When I Have Finished My Pilgrimage Here
T:When I Have Finished My Pilgrimage Here
T:Bentley DeForest Ackley
T:Alfred Henry Ackley, 1909
T:Public Domain Courtesy of the Cyber Hymnal™
T:Public Domain Courtesy of the Cyber Hymnal™
C:Bentley DeForest Ackley
Z:Public Domain
Z:Courtesy of the Cyber Hymnal™
%%score ( 1 2 ) ( 3 4 )
L:1/8
Q:1/4=165
M:6/4
K:Bb
V:1 treble 
V:2 treble 
V:3 bass 
V:4 bass 
V:1
 [DF]2 [Fd]2 [Ec]2 [DB]2 [DA]2 [DB]2 | D2 [^CA]2 [CG]2 [DF]6 | %2
w: 1.~When I have fin- ished my|pil- grim- age here,|
w: 2.~When I am trou- bled by|grief and des- pair,|
w: 3.~When I have tra- veled the|way with my Lord,|
 [DF]2 [DG]2 [DA]2 [DB]2 [Ec]2 [Fd]2 | [=Ec]2 [EG]2 [EB]2 [_EA]6 | %4
w: When shall have van- quished temp-|ta- tion and fear,|
w: Grace ne- ver fail- ing a-|waits me up there;|
w: Count- ing the mile- posts by|faith in His Word,|
 [DF]2 [Fd]2 [Ec]2 [DB]2 [DA]2 [DB]2 | D2 [^CA]2 [CG]2 [DF]6 | [FA]2 [FG]2 [FA]2 [=EB]4 [EG]2 | %7
w: As in the arms of His|love I a- bide,|I shall be sat- is-|
w: Will- ing to trust Him what-|ev- er be- tide,|I shall be sat- is-|
w: Liv- ing and dy- ing with|Him by my side,|I shall be sat- is-|
 ([E-c]6 [EF]6) ||"^Refrain" F6- [DF]2 [DG]2 [DB]2 | A4 [EG]2 F6 | c6- [Ec]2 [Fd]2 [Fe]2 | %11
w: fied. *||||
w: fied. *|I shall be sa-|* tis- fied,|I shall be sa-|
w: fied. *||||
 d4 [Ec]2 B6 | .[Fd]2 .[Ec]2 .[DB]2 .[Fd]2 .[Fc]2 .[FB]2 | %13
w: ||
w: * tis- fied,|Shel- tered a- bove by His|
w: ||
"^riten." [Ge]2 [GB]2 [Gc]2 !fermata![Fd]6 | [Gc]2 [Gf]2 [Ge]2 [Fd]2 [Ec]4 | [DB]12 |] %16
w: |||
w: in- fin- ite love,|I shall be sa- tis-|fied.|
w: |||
V:2
 x12 | D2 x10 | x12 | x12 | x12 | D2 x10 | x12 | x12 || D2 D2 D2 x6 | (E2 E2) (E2 E2 E2) x2 | %10
 E2 E2 E2 x6 | (F2 F2) (D2 D2 D2) x2 | x12 | x12 | x12 | x12 |] %16
V:3
 [B,,B,]2 [B,,B,]2 [B,,B,]2 [B,,F,]2 [B,,F,]2 [B,,F,]2 | (B,F,) [B,,=E,]2 [B,,G,]2 [B,,B,]6 | %2
w: ~ ~ ~ ~ ~ ~|~ * ~ ~ ~|
 [B,,B,]2 [B,,B,]2 [B,,B,]2 [B,,F,]2 [B,,F,]2 [B,,B,]2 | [C,G,]2 [C,C]2 [C,C]2 [F,C]6 | %4
w: ~ ~ ~ ~ ~ ~|~ ~ ~ ~|
 [B,,B,]2 [B,,B,]2 [B,,B,]2 [B,,F,]2 [B,,F,]2 [B,,F,]2 | (B,F,) [B,,=E,]2 [B,,G,]2 [B,,B,]6 | %6
w: ~ ~ ~ ~ ~ ~|~ * ~ ~ ~|
 [F,C]2 [F,C]2 [F,C]2 [G,C]4 [C,B,]2 | [F,A,]12 || B,2 B,2 B,2 [B,,B,]2 [B,,F,]2 [B,,F,]2 | %9
w: ~ ~ ~ ~ ~|~|I shall be~sa- tis- fied, I|
 F,2 C2 [C,B,]2 A,2 A,2 A,2 | A,2 A,2 A,2 [F,A,]2 [F,B,]2 [F,A,]2 | B,2 B,2 [B,,F,]2 F,2 F,2 F,2 | %12
w: shall be sa- tis- fied, I|shall be~sa- tis- fied, I shall|be sa- tis- fied; * *|
 [B,,B,]2 [B,,B,]2 [B,,F,]2 [B,,B,]2 [C,A,]2 [D,B,]2 | [E,B,]2 [E,B,]2 [E,G,]2 !fermata![D,A,]6 | %14
w: ||
 [E,C]2 [D,=B,]2 [C,C]2 F,2 [F,A,]4 | [B,,F,B,]12 |] %16
w: ||
V:4
 x12 | B,,2 x10 | x12 | x12 | x12 | B,,2 x10 | x12 | x12 || B,,6- x6 | C,4 F,6 x2 | F,6- x6 | %11
 B,,4 B,,6 x2 | x12 | x12 | x6 F,2 x4 | x12 |] %16

